algorithms/cpu-scheduling/round-robin/empty-queue.svg

<svg width="707" height="418" viewBox="0 0 707 418" fill="none" xmlns="http://www.w3.org/2000/svg">
<rect x="516" y="112" width="136" height="136" rx="27" stroke="#DBDBDB" stroke-width="2" stroke-dasharray="20 20"/>
<rect x="360" y="112" width="136" height="136" rx="27" stroke="#DBDBDB" stroke-width="2" stroke-dasharray="20 20"/>
<rect x="1" y="82" width="705" height="197" rx="27" stroke="#DBDBDB" stroke-width="2"/>
<rect x="204" y="112" width="136" height="136" rx="27" stroke="#DBDBDB" stroke-width="2" stroke-dasharray="20 20"/>
<rect x="48" y="112" width="136" height="136" rx="27" stroke="#DBDBDB" stroke-width="2" stroke-dasharray="20 20"/>
<path d="M589.568 181.966V185.091H576.841V181.966H589.568Z" fill="white"/>
<path d="M433.568 181.966V185.091H420.841V181.966H433.568Z" fill="white"/>
<path d="M277.568 181.966V185.091H264.841V181.966H277.568Z" fill="white"/>
<path d="M121.568 181.966V185.091H108.841V181.966H121.568Z" fill="white"/>
<path d="M60.1985 391V361.909H77.7553V365.034H63.7212V374.864H76.8462V377.989H63.7212V387.875H77.9826V391H60.1985ZM87.0025 377.875V391H83.6502V369.182H86.8888V372.591H87.1729C87.6843 371.483 88.4608 370.593 89.5025 369.92C90.5442 369.239 91.8888 368.898 93.5366 368.898C95.0138 368.898 96.3065 369.201 97.4144 369.807C98.5224 370.403 99.3841 371.312 99.9996 372.534C100.615 373.746 100.923 375.28 100.923 377.136V391H97.5707V377.364C97.5707 375.65 97.1256 374.314 96.2354 373.358C95.3453 372.392 94.1237 371.909 92.5707 371.909C91.5006 371.909 90.5442 372.141 89.7013 372.605C88.868 373.069 88.2099 373.746 87.7269 374.636C87.244 375.527 87.0025 376.606 87.0025 377.875ZM116.537 369.182V372.023H105.23V369.182H116.537ZM108.526 363.955H111.878V384.75C111.878 385.697 112.016 386.407 112.29 386.881C112.574 387.345 112.934 387.657 113.37 387.818C113.815 387.97 114.283 388.045 114.776 388.045C115.145 388.045 115.448 388.027 115.685 387.989C115.922 387.941 116.111 387.903 116.253 387.875L116.935 390.886C116.708 390.972 116.391 391.057 115.983 391.142C115.576 391.237 115.06 391.284 114.435 391.284C113.488 391.284 112.56 391.08 111.651 390.673C110.751 390.266 110.003 389.646 109.407 388.812C108.819 387.979 108.526 386.928 108.526 385.659V363.955ZM121.58 391V369.182H124.819V372.477H125.046C125.444 371.398 126.163 370.522 127.205 369.849C128.247 369.177 129.421 368.841 130.728 368.841C130.974 368.841 131.282 368.846 131.651 368.855C132.02 368.865 132.3 368.879 132.489 368.898V372.307C132.375 372.278 132.115 372.236 131.708 372.179C131.31 372.113 130.889 372.08 130.444 372.08C129.383 372.08 128.436 372.302 127.603 372.747C126.779 373.183 126.125 373.789 125.642 374.565C125.169 375.332 124.932 376.208 124.932 377.193V391H121.58ZM139.286 399.182C138.718 399.182 138.211 399.134 137.766 399.04C137.321 398.955 137.013 398.869 136.843 398.784L137.695 395.83C138.509 396.038 139.229 396.114 139.854 396.057C140.479 396 141.033 395.721 141.516 395.219C142.008 394.726 142.458 393.926 142.865 392.818L143.49 391.114L135.422 369.182H139.059L145.081 386.568H145.309L151.331 369.182H154.968L145.706 394.182C145.29 395.309 144.774 396.241 144.158 396.98C143.542 397.728 142.828 398.282 142.013 398.642C141.208 399.002 140.299 399.182 139.286 399.182Z" fill="#717171"/>
<path d="M571.257 391V361.909H588.814V365.034H574.78V374.864H587.905V377.989H574.78V387.875H589.041V391H571.257ZM597.209 369.182L602.436 378.102L607.663 369.182H611.527L604.482 380.091L611.527 391H607.663L602.436 382.534L597.209 391H593.345L600.277 380.091L593.345 369.182H597.209ZM616.31 391V369.182H619.663V391H616.31ZM618.015 365.545C617.362 365.545 616.798 365.323 616.325 364.878C615.861 364.433 615.629 363.898 615.629 363.273C615.629 362.648 615.861 362.113 616.325 361.668C616.798 361.223 617.362 361 618.015 361C618.668 361 619.227 361.223 619.691 361.668C620.165 362.113 620.401 362.648 620.401 363.273C620.401 363.898 620.165 364.433 619.691 364.878C619.227 365.323 618.668 365.545 618.015 365.545ZM635.291 369.182V372.023H623.984V369.182H635.291ZM627.28 363.955H630.632V384.75C630.632 385.697 630.769 386.407 631.044 386.881C631.328 387.345 631.688 387.657 632.124 387.818C632.569 387.97 633.037 388.045 633.53 388.045C633.899 388.045 634.202 388.027 634.439 387.989C634.676 387.941 634.865 387.903 635.007 387.875L635.689 390.886C635.462 390.972 635.144 391.057 634.737 391.142C634.33 391.237 633.814 391.284 633.189 391.284C632.242 391.284 631.314 391.08 630.405 390.673C629.505 390.266 628.757 389.646 628.161 388.812C627.573 387.979 627.28 386.928 627.28 385.659V363.955Z" fill="#717171"/>
<path d="M305.833 29.9091H309.697L312.935 34.1705L313.788 35.3068L318.617 41.7273H314.754L311.572 37.4659L310.776 36.3864L305.833 29.9091ZM319.81 24.4545C319.81 27.5227 319.256 30.1742 318.148 32.4091C317.04 34.6439 315.521 36.3674 313.589 37.5795C311.657 38.7917 309.451 39.3977 306.969 39.3977C304.488 39.3977 302.282 38.7917 300.35 37.5795C298.418 36.3674 296.898 34.6439 295.79 32.4091C294.683 30.1742 294.129 27.5227 294.129 24.4545C294.129 21.3864 294.683 18.7348 295.79 16.5C296.898 14.2652 298.418 12.5417 300.35 11.3295C302.282 10.1174 304.488 9.51136 306.969 9.51136C309.451 9.51136 311.657 10.1174 313.589 11.3295C315.521 12.5417 317.04 14.2652 318.148 16.5C319.256 18.7348 319.81 21.3864 319.81 24.4545ZM316.401 24.4545C316.401 21.9356 315.98 19.8097 315.137 18.0767C314.304 16.3438 313.172 15.0322 311.742 14.142C310.322 13.2519 308.731 12.8068 306.969 12.8068C305.208 12.8068 303.612 13.2519 302.183 14.142C300.762 15.0322 299.63 16.3438 298.788 18.0767C297.954 19.8097 297.538 21.9356 297.538 24.4545C297.538 26.9735 297.954 29.0994 298.788 30.8324C299.63 32.5653 300.762 33.8769 302.183 34.767C303.612 35.6572 305.208 36.1023 306.969 36.1023C308.731 36.1023 310.322 35.6572 311.742 34.767C313.172 33.8769 314.304 32.5653 315.137 30.8324C315.98 29.0994 316.401 26.9735 316.401 24.4545ZM339.029 30.0795V17.1818H342.381V39H339.029V35.3068H338.802C338.29 36.4148 337.495 37.357 336.415 38.1335C335.336 38.9006 333.972 39.2841 332.325 39.2841C330.961 39.2841 329.749 38.9858 328.688 38.3892C327.628 37.7831 326.794 36.8741 326.188 35.6619C325.582 34.4403 325.279 32.9015 325.279 31.0455V17.1818H328.631V30.8182C328.631 32.4091 329.076 33.678 329.967 34.625C330.866 35.572 332.012 36.0455 333.404 36.0455C334.237 36.0455 335.085 35.8324 335.947 35.4062C336.818 34.9801 337.547 34.3267 338.134 33.446C338.731 32.5653 339.029 31.4432 339.029 30.0795ZM357.669 39.4545C355.567 39.4545 353.753 38.9905 352.229 38.0625C350.714 37.125 349.544 35.8182 348.72 34.142C347.906 32.4564 347.499 30.4962 347.499 28.2614C347.499 26.0265 347.906 24.0568 348.72 22.3523C349.544 20.6383 350.69 19.303 352.158 18.3466C353.635 17.3807 355.358 16.8977 357.328 16.8977C358.464 16.8977 359.587 17.0871 360.695 17.4659C361.803 17.8447 362.811 18.4602 363.72 19.3125C364.629 20.1553 365.354 21.2727 365.893 22.6648C366.433 24.0568 366.703 25.7708 366.703 27.8068V29.2273H349.885V26.3295H363.294C363.294 25.0985 363.048 24 362.555 23.0341C362.072 22.0682 361.381 21.3059 360.482 20.7472C359.591 20.1884 358.54 19.9091 357.328 19.9091C355.993 19.9091 354.838 20.2405 353.862 20.9034C352.896 21.5568 352.153 22.4091 351.632 23.4602C351.111 24.5114 350.851 25.6383 350.851 26.8409V28.7727C350.851 30.4205 351.135 31.8172 351.703 32.9631C352.281 34.0994 353.081 34.9659 354.104 35.5625C355.126 36.1496 356.315 36.4432 357.669 36.4432C358.55 36.4432 359.345 36.3201 360.055 36.0739C360.775 35.8182 361.395 35.4394 361.916 34.9375C362.437 34.4261 362.839 33.7917 363.124 33.0341L366.362 33.9432C366.021 35.0417 365.448 36.0076 364.643 36.8409C363.839 37.6648 362.844 38.3087 361.661 38.7727C360.477 39.2273 359.146 39.4545 357.669 39.4545ZM385.553 30.0795V17.1818H388.905V39H385.553V35.3068H385.325C384.814 36.4148 384.018 37.357 382.939 38.1335C381.859 38.9006 380.496 39.2841 378.848 39.2841C377.484 39.2841 376.272 38.9858 375.212 38.3892C374.151 37.7831 373.318 36.8741 372.712 35.6619C372.106 34.4403 371.803 32.9015 371.803 31.0455V17.1818H375.155V30.8182C375.155 32.4091 375.6 33.678 376.49 34.625C377.39 35.572 378.536 36.0455 379.928 36.0455C380.761 36.0455 381.608 35.8324 382.47 35.4062C383.341 34.9801 384.071 34.3267 384.658 33.446C385.254 32.5653 385.553 31.4432 385.553 30.0795ZM404.192 39.4545C402.09 39.4545 400.277 38.9905 398.752 38.0625C397.237 37.125 396.067 35.8182 395.244 34.142C394.429 32.4564 394.022 30.4962 394.022 28.2614C394.022 26.0265 394.429 24.0568 395.244 22.3523C396.067 20.6383 397.213 19.303 398.681 18.3466C400.158 17.3807 401.882 16.8977 403.852 16.8977C404.988 16.8977 406.11 17.0871 407.218 17.4659C408.326 17.8447 409.335 18.4602 410.244 19.3125C411.153 20.1553 411.877 21.2727 412.417 22.6648C412.957 24.0568 413.227 25.7708 413.227 27.8068V29.2273H396.408V26.3295H409.817C409.817 25.0985 409.571 24 409.079 23.0341C408.596 22.0682 407.905 21.3059 407.005 20.7472C406.115 20.1884 405.064 19.9091 403.852 19.9091C402.516 19.9091 401.361 20.2405 400.386 20.9034C399.42 21.5568 398.676 22.4091 398.156 23.4602C397.635 24.5114 397.374 25.6383 397.374 26.8409V28.7727C397.374 30.4205 397.658 31.8172 398.227 32.9631C398.804 34.0994 399.604 34.9659 400.627 35.5625C401.65 36.1496 402.838 36.4432 404.192 36.4432C405.073 36.4432 405.869 36.3201 406.579 36.0739C407.299 35.8182 407.919 35.4394 408.44 34.9375C408.96 34.4261 409.363 33.7917 409.647 33.0341L412.886 33.9432C412.545 35.0417 411.972 36.0076 411.167 36.8409C410.362 37.6648 409.368 38.3087 408.184 38.7727C407 39.2273 405.67 39.4545 404.192 39.4545Z" fill="white"/>
<path d="M622.375 307.25L638.625 323.5L622.375 339.75" stroke="#DBDBDB" stroke-width="4" stroke-linecap="round" stroke-linejoin="round"/>
<line x1="60" y1="323.5" x2="636" y2="323.5" stroke="#DBDBDB" stroke-width="5"/>
</svg>

<svg xmlns="http://www.w3.org/2000/svg" width="707" height="418" fill="none" viewBox="0 0 707 418"><rect width="136" height="136" x="516" y="112" stroke="#dbdbdb" stroke-dasharray="20 20" stroke-width="2" rx="27"/><rect width="136" height="136" x="360" y="112" stroke="#dbdbdb" stroke-dasharray="20 20" stroke-width="2" rx="27"/><rect width="705" height="197" x="1" y="82" stroke="#dbdbdb" stroke-width="2" rx="27"/><rect width="136" height="136" x="204" y="112" stroke="#dbdbdb" stroke-dasharray="20 20" stroke-width="2" rx="27"/><rect width="136" height="136" x="48" y="112" stroke="#dbdbdb" stroke-dasharray="20 20" stroke-width="2" rx="27"/><path fill="#fff" d="M589.568 181.966v3.125h-12.727v-3.125zM433.568 181.966v3.125h-12.727v-3.125zM277.568 181.966v3.125h-12.727v-3.125zM121.568 181.966v3.125h-12.727v-3.125z"/><path fill="#717171" d="M60.199 391v-29.091h17.556v3.125H63.721v9.83h13.125v3.125H63.721v9.886h14.262V391zm26.804-13.125V391H83.65v-21.818h3.239v3.409h.284a6.24 6.24 0 0 1 2.33-2.671q1.562-1.022 4.034-1.022 2.216 0 3.877.909 1.662.894 2.586 2.727.923 1.818.923 4.602V391h-3.352v-13.636q0-2.572-1.336-4.006-1.335-1.449-3.664-1.449-1.605 0-2.87.696-1.25.696-1.974 2.031-.725 1.336-.725 3.239m29.534-8.693v2.841H105.23v-2.841zm-8.011-5.227h3.352v20.795q0 1.42.412 2.131.426.696 1.08.937.667.227 1.406.227.553 0 .909-.056l.568-.114.682 3.011a7 7 0 0 1-.952.256q-.61.142-1.548.142a6.75 6.75 0 0 1-2.784-.611 5.5 5.5 0 0 1-2.244-1.861q-.882-1.25-.881-3.153zM121.58 391v-21.818h3.239v3.295h.227q.597-1.618 2.159-2.628 1.563-1.008 3.523-1.008.37 0 .923.014.554.015.838.043v3.409a10 10 0 0 0-.781-.128 8 8 0 0 0-1.264-.099q-1.592 0-2.841.667a5.04 5.04 0 0 0-1.961 1.818q-.71 1.15-.71 2.628V391zm17.706 8.182a7.4 7.4 0 0 1-1.52-.142q-.668-.128-.923-.256l.852-2.954q1.221.312 2.159.227t1.662-.838q.738-.74 1.349-2.401l.625-1.704-8.068-21.932h3.637l6.022 17.386h.228l6.022-17.386h3.637l-9.262 25q-.624 1.69-1.548 2.798-.923 1.122-2.145 1.662-1.208.54-2.727.54M571.257 391v-29.091h17.557v3.125H574.78v9.83h13.125v3.125H574.78v9.886h14.261V391zm25.952-21.818 5.227 8.92 5.227-8.92h3.864l-7.045 10.909L611.527 391h-3.864l-5.227-8.466-5.227 8.466h-3.864l6.932-10.909-6.932-10.909zM616.31 391v-21.818h3.353V391zm1.705-25.455a2.38 2.38 0 0 1-1.69-.667q-.696-.667-.696-1.605t.696-1.605a2.38 2.38 0 0 1 1.69-.668q.98 0 1.676.668.71.667.71 1.605t-.71 1.605a2.34 2.34 0 0 1-1.676.667m17.276 3.637v2.841h-11.307v-2.841zm-8.011-5.227h3.352v20.795q0 1.42.412 2.131.426.696 1.08.937.667.227 1.406.227.553 0 .909-.056l.568-.114.682 3.011a7 7 0 0 1-.952.256q-.61.142-1.548.142a6.75 6.75 0 0 1-2.784-.611 5.5 5.5 0 0 1-2.244-1.861q-.881-1.25-.881-3.153z"/><path fill="#fff" d="M305.833 29.91h3.864l3.238 4.26.853 1.137 4.829 6.42h-3.863l-3.182-4.261-.796-1.08zm13.977-5.456q0 4.603-1.662 7.955t-4.559 5.17q-2.897 1.82-6.62 1.819-3.721 0-6.619-1.819t-4.56-5.17q-1.66-3.352-1.661-7.954 0-4.603 1.661-7.955t4.56-5.17q2.898-1.82 6.619-1.819 3.723 0 6.62 1.819t4.559 5.17 1.662 7.954m-3.409 0q0-3.777-1.264-6.377-1.25-2.6-3.395-3.935-2.13-1.335-4.773-1.335t-4.786 1.335q-2.132 1.335-3.395 3.935-1.25 2.6-1.25 6.377 0 3.78 1.25 6.378 1.263 2.6 3.395 3.935 2.144 1.335 4.786 1.335 2.643 0 4.773-1.335 2.145-1.335 3.395-3.935 1.264-2.599 1.264-6.378m22.628 5.625V17.182h3.352V39h-3.352v-3.693h-.227q-.768 1.662-2.387 2.826-1.619 1.151-4.09 1.151-2.046 0-3.637-.895-1.59-.909-2.5-2.727-.909-1.832-.909-4.616V17.182h3.352v13.636q0 2.387 1.336 3.807 1.349 1.42 3.437 1.42 1.25 0 2.543-.639 1.307-.64 2.187-1.96.895-1.32.895-3.366m18.64 9.376q-3.154 0-5.44-1.392-2.273-1.407-3.509-3.921-1.221-2.529-1.221-5.88 0-3.353 1.221-5.91 1.236-2.571 3.438-4.005 2.215-1.45 5.17-1.45 1.705 0 3.367.569 1.662.568 3.025 1.846 1.364 1.264 2.173 3.353.81 2.088.81 5.142v1.42h-16.818V26.33h13.409q0-1.846-.739-3.295a5.57 5.57 0 0 0-2.073-2.287q-1.336-.838-3.154-.838-2.002 0-3.466.994a6.54 6.54 0 0 0-2.23 2.557 7.5 7.5 0 0 0-.781 3.38v1.933q0 2.472.852 4.19.867 1.704 2.401 2.6 1.533.88 3.565.88 1.321 0 2.386-.37a5.1 5.1 0 0 0 1.861-1.136q.781-.766 1.208-1.903l3.238.91a7.2 7.2 0 0 1-1.719 2.897q-1.207 1.236-2.982 1.932-1.776.681-3.992.681m27.884-9.375V17.182h3.352V39h-3.352v-3.693h-.228q-.767 1.662-2.386 2.826-1.62 1.151-4.091 1.151-2.046 0-3.636-.895-1.591-.909-2.5-2.727-.909-1.832-.909-4.616V17.182h3.352v13.636q0 2.387 1.335 3.807 1.35 1.42 3.438 1.42 1.25 0 2.542-.639 1.307-.64 2.188-1.96.895-1.32.895-3.366m18.639 9.375q-3.153 0-5.44-1.392-2.273-1.407-3.508-3.921-1.222-2.529-1.222-5.88 0-3.353 1.222-5.91 1.235-2.571 3.437-4.005 2.216-1.45 5.171-1.45 1.704 0 3.366.569 1.662.568 3.026 1.846 1.363 1.264 2.173 3.353.81 2.088.81 5.142v1.42h-16.819V26.33h13.409q0-1.846-.738-3.295a5.56 5.56 0 0 0-2.074-2.287q-1.335-.838-3.153-.838-2.004 0-3.466.994a6.53 6.53 0 0 0-2.23 2.557 7.5 7.5 0 0 0-.782 3.38v1.933q0 2.472.853 4.19.865 1.704 2.4 2.6 1.534.88 3.565.88 1.322 0 2.387-.37a5.1 5.1 0 0 0 1.861-1.136q.78-.766 1.207-1.903l3.239.91a7.2 7.2 0 0 1-1.719 2.897q-1.207 1.236-2.983 1.932-1.776.681-3.992.681"/><path stroke="#dbdbdb" stroke-linecap="round" stroke-linejoin="round" stroke-width="4" d="m622.375 307.25 16.25 16.25-16.25 16.25"/><path stroke="#dbdbdb" stroke-width="5" d="M60 323.5h576"/></svg>
